X:128
T: MARIA DURCH NEN DORNWALD GING
N: E1193
O: Europa, Mitteleuropa, Deutschland, Eichsfelde
R: Ansinge -, Brauchtums - Lied, Kirchen - Fest, Silvester, Namenstag
M: 4/4
L: 1/8
K: G
D2 | G3A_B2d2 | _B2AGA4
B2BBc4 | d4z2
_Bc | d3cd2_ed | c3_Bc2
dc | _B3AB2cB | A3GA4
G3A_B2d2 | _BAG4

